X: 16294
T: Grinder, The
R: slip jig
M: 9/8
K: Amixolydian
|:A3 A2B G2B|A3 A2B d2e|A3 A2B G2B|gfe edB d2e:|
|:gfe edB BAG|g2e efg a2e|g2e edB BAG|A3 A2B d2e:|

